build/system/SmallArrowRightSolid.svg

<svg xmlns="http://www.w3.org/2000/svg" fill="none" viewBox="0 0 24 24" focusable="false"><path d="M0 0H24V24H0z"/><path fill="#74767B" fill-rule="evenodd" d="M21 12C21 7.02944 16.9706 3 12 3C7.02944 3 3 7.02944 3 12C3 16.9706 7.02944 21 12 21C16.9706 21 21 16.9706 21 12ZM10.3567 15.1778C10.4867 15.3178 10.6567 15.3878 10.8367 15.3878C10.9967 15.3878 11.1467 15.3378 11.2767 15.2178L14.2665 12.53C14.5765 12.25 14.5765 11.77 14.2665 11.49L11.2809 8.89368C11.0109 8.65368 10.6009 8.67368 10.3609 8.93368C10.1209 9.20368 10.1309 9.61368 10.4009 9.85368L12.8965 12.01L10.3967 14.2578C10.1367 14.4978 10.1167 14.9078 10.3567 15.1778Z"/></svg>

<svg xmlns="http://www.w3.org/2000/svg" fill="none" viewBox="0 0 24 24" focusable="false"><path fill="#74767B" fill-rule="evenodd" d="M21 12c0-4.98-4.03-9-9-9-4.98 0-9 4.02-9 9 0 4.97 4.02 9 9 9a9 9 0 0 0 9-9m-10.65 3.17c.13.14.3.21.48.21.16 0 .31-.05.44-.17l2.99-2.68c.31-.28.31-.76 0-1.04l-2.98-2.6a.66.66 0 0 0-.92.04.65.65 0 0 0 .04.92l2.49 2.16-2.5 2.24c-.26.24-.28.65-.04.92"/></svg>
